public/formular-icons/greece/upper-iota.svg

<svg style="vertical-align:0" xmlns="http://www.w3.org/2000/svg" width="1.14ex" height="1.545ex" viewBox="0 -683 504 683" xmlns:xlink="http://www.w3.org/1999/xlink"><defs><path id="a" d="M43 1q-17 0-17 9 0 2 3 14 5 19 10 21 3 1 15 1h6q60 0 76 7 1 0 2 1 5 2 11 23t49 196q12 45 18 71 70 280 70 282-2 4-2 5-10 6-71 6h-20q-9 6-4 25 4 15 6 18t14 3h4q72-2 146-2 122 0 128 2h10q7-7 7-11t-3-17-7-16q-3-2-23-2-31 0-64-3-14-3-19-11-7-14-51-191-11-47-22-91-70-276-70-282 0-7 10-9t52-4h32q6-8 6-9t-3-18q-4-13-10-19h-16q-37 2-137 2H65Q47 2 43 1Z"/></defs><g stroke="currentColor" fill="currentColor" stroke-width="0"><use data-c="1D43C" xlink:href="#a" transform="scale(1 -1)"/></g></svg>

<svg style="vertical-align: 0" xmlns="http://www.w3.org/2000/svg" width="1.14ex" height="1.545ex" role="img" focusable="false" viewBox="0 -683 504 683" xmlns:xlink="http://www.w3.org/1999/xlink"><defs><path id="MJX-103-TEX-I-1D43C" d="M43 1Q26 1 26 10Q26 12 29 24Q34 43 39 45Q42 46 54 46H60Q120 46 136 53Q137 53 138 54Q143 56 149 77T198 273Q210 318 216 344Q286 624 286 626Q284 630 284 631Q274 637 213 637H193Q184 643 189 662Q193 677 195 680T209 683H213Q285 681 359 681Q481 681 487 683H497Q504 676 504 672T501 655T494 639Q491 637 471 637Q440 637 407 634Q393 631 388 623Q381 609 337 432Q326 385 315 341Q245 65 245 59Q245 52 255 50T307 46H339Q345 38 345 37T342 19Q338 6 332 0H316Q279 2 179 2Q143 2 113 2T65 2T43 1Z"></path></defs><g stroke="currentColor" fill="currentColor" stroke-width="0" transform="scale(1,-1)"><g data-mml-node="math"><g data-mml-node="mi"><use data-c="1D43C" xlink:href="#MJX-103-TEX-I-1D43C"></use></g></g></g></svg>
